icon-svg/rooms-mancave.svg

<svg xmlns="http://www.w3.org/2000/svg" fill="#44739e" viewBox="0 0 24 24"><path d="M27 13.934c-.553 0-1-.448-1-1 0-.553.447-1 1-1s1 .447 1 1c0 .552-.447 1-1 1m-3-3c-.553 0-1-.448-1-1 0-.553.447-1 1-1s1 .447 1 1c0 .552-.447 1-1 1M24 17c-.553 0-1-.447-1-1 0-.552.447-1 1-1s1 .448 1 1c0 .553-.447 1-1 1m-3-3.066c-.553 0-1-.448-1-1 0-.553.447-1 1-1s1 .447 1 1c0 .552-.447 1-1 1m-11.037 0h-1v1c0 .55-.45 1-1 1s-1-.45-1-1v-1h-1c-.55 0-1-.45-1-1s.45-1 1-1h1v-1c0-.55.45-1 1-1s1 .45 1 1v1h1c.55 0 1 .45 1 1s-.45 1-1 1M24.357 7H8.576C5.191 7 2 9.698 2 12.934v8.461C2 23.49 4.064 25 5.942 25c1.507 0 2.926-.957 3.479-2.282l1.901-4.722h9.356l2.541 4.722c.754 1.325 1.706 2.181 3.199 2.181 2.077 0 3.582-1.409 3.582-3.504v-8.461C30 9.698 27.543 7 24.357 7"/></svg>

<?xml version="1.0" encoding="UTF-8"?>
<svg width="32px" height="32px" viewBox="0 0 32 32" fill="#44739e" version="1.1" xmlns="http://www.w3.org/2000/svg" xmlns:xlink="http://www.w3.org/1999/xlink">
            <path d="M27,13.934 C26.447,13.934 26,13.486 26,12.934 C26,12.381 26.447,11.934 27,11.934 C27.553,11.934 28,12.381 28,12.934 C28,13.486 27.553,13.934 27,13.934 M24,10.934 C23.447,10.934 23,10.486 23,9.934 C23,9.381 23.447,8.934 24,8.934 C24.553,8.934 25,9.381 25,9.934 C25,10.486 24.553,10.934 24,10.934 M24,17 C23.447,17 23,16.553 23,16 C23,15.448 23.447,15 24,15 C24.553,15 25,15.448 25,16 C25,16.553 24.553,17 24,17 M21,13.934 C20.447,13.934 20,13.486 20,12.934 C20,12.381 20.447,11.934 21,11.934 C21.553,11.934 22,12.381 22,12.934 C22,13.486 21.553,13.934 21,13.934 M9.963,13.934 L8.963,13.934 L8.963,14.934 C8.963,15.484 8.513,15.934 7.963,15.934 C7.413,15.934 6.963,15.484 6.963,14.934 L6.963,13.934 L5.963,13.934 C5.413,13.934 4.963,13.484 4.963,12.934 C4.963,12.384 5.413,11.934 5.963,11.934 L6.963,11.934 L6.963,10.934 C6.963,10.384 7.413,9.934 7.963,9.934 C8.513,9.934 8.963,10.384 8.963,10.934 L8.963,11.934 L9.963,11.934 C10.513,11.934 10.963,12.384 10.963,12.934 C10.963,13.484 10.513,13.934 9.963,13.934 M24.357,7 L24.174,7 L8.576,7 C5.191,7 2,9.698 2,12.934 L2,21.395 C2,23.49 4.064,25 5.942,25 C7.449,25 8.868,24.043 9.421,22.718 L11.322,17.996 L20.678,17.996 L23.219,22.718 C23.973,24.043 24.925,24.899 26.418,24.899 C28.495,24.899 30,23.49 30,21.395 L30,12.934 C30,9.698 27.543,7 24.357,7"></path>
</svg>
